X:3
T:Finistere
C:\251 Gary Wikfors; transcribed by Willow Sirch
M:6/8
L:1/8
K:A Mix
Z: Chords and Mode modified by Norman Plankey
"A"A,2A, A,2A,|A,B,"D"C D3|"G"EFG FED|EDB,"E"A,2G,|
"A"A,2A, A,2A,|A,B,"D"C D3|"G"EFG FED|EDB,"E"A,3:|
"A"A2E A2E|ABA "D"GFE|"G"D2D DEF|GFE "E"DFG|
"A"A2E A2E|ABA "D"GFE|"G"D2D DEF|GFE "E"D3:|
